usr/share/icons/biglinux-icons-material-dark/22/actions/text_vert_kern.svg

<svg xmlns="http://www.w3.org/2000/svg" viewBox="0 0 22 22">
<defs id="defs3051">
<style id="current-color-scheme" type="text/css">
.ColorScheme-Text{color:#dedede}.ColorScheme-Highlight{color:#3daee9}
</style>
</defs>
<path d="M12 5v8h1v-1.361A4 4 0 0 0 16 13a4 4 0 0 0 4-4 4 4 0 0 0-4-4 4 4 0 0 0-3 1.361V5zm4 1a3 3 0 0 1 3 3 3 3 0 0 1-3 3 3 3 0 0 1-3-3 3 3 0 0 1 3-3M5 11a4 4 0 0 0-4 4 4 4 0 0 0 4 4 4 4 0 0 0 3-1.361V19h1v-8H8v1.361A4 4 0 0 0 5 11m0 1a3 3 0 0 1 3 3 3 3 0 0 1-3 3 3 3 0 0 1-3-3 3 3 0 0 1 3-3" class="ColorScheme-Text" style="fill:currentColor;fill-opacity:1;stroke:none"/>
<path d="M10 3v16h1v-4h9v-1h-9V3z" class="ColorScheme-Highlight" style="fill:currentColor;fill-opacity:1;stroke:none"/>
</svg>

<svg xmlns="http://www.w3.org/2000/svg" viewBox="0 0 22 22">
  <defs id="defs3051">
    <style type="text/css" id="current-color-scheme">
      .ColorScheme-Text {
        color:#dedede;
      }
      .ColorScheme-Highlight {
        color:#3daee9;
      }
      </style>
  </defs>
 <path 
     style="fill:currentColor;fill-opacity:1;stroke:none" 
	d="M 12 5 L 12 9 L 12 13 L 13 13 L 13 11.638672 A 4 4 0 0 0 16 13 A 4 4 0 0 0 20 9 A 4 4 0 0 0 16 5 A 4 4 0 0 0 13 6.3613281 L 13 5 L 12 5 z M 16 6 A 3 3 0 0 1 19 9 A 3 3 0 0 1 16 12 A 3 3 0 0 1 13 9 A 3 3 0 0 1 16 6 z M 5 11 A 4 4 0 0 0 1 15 A 4 4 0 0 0 5 19 A 4 4 0 0 0 8 17.638672 L 8 19 L 9 19 L 9 15 L 9 11 L 8 11 L 8 12.361328 A 4 4 0 0 0 5 11 z M 5 12 A 3 3 0 0 1 8 15 A 3 3 0 0 1 5 18 A 3 3 0 0 1 2 15 A 3 3 0 0 1 5 12 z "
       class="ColorScheme-Text"
     />
 <path 
     style="fill:currentColor;fill-opacity:1;stroke:none" 
	d="M 10 3 L 10 19 L 11 19 L 11 15 L 20 15 L 20 14 L 11 14 L 11 3 L 10 3 z "
       class="ColorScheme-Highlight"
     />
</svg>
